themes/gmt/src/svg/10up.svg

<svg xmlns="http://www.w3.org/2000/svg" width="235.838" height="269.941"><path fill="#DF2B26" d="M60.933 4.502L0 34.499l12.081 14.422V186.13l48.852-48.868z"/><path d="M117.498 215.8c0 7.527-5.092 10.752-10.75 10.752-7.508 0-9.263-4.576-9.263-9.544v-43.127h-.319l-24.134 24.133v24.633c0 13.574 7.256 25.528 24.053 25.528 7.39 0 14.918-3.086 20.413-8.192v6.582h24.453v-72.684h-24.453V215.8zm84.252-43.395c-8.327 0-15.17 2.95-20.689 8.327v-6.852h-24.578v96.061h24.578v-29.959c5.52 5.106 12.362 8.192 20.689 8.192 20.288 0 32.928-16.252 32.928-37.885 0-21.359-12.64-37.884-32.928-37.884zm-6.58 54.812c-9.398 0-14.109-7.795-14.109-17.061 0-9.267 4.574-16.929 14.109-16.929 9.278 0 13.569 7.785 13.569 16.929 0 9.002-4.291 17.061-13.569 17.061z" fill="#fff"/><path fill="#DF2B26" d="M157.093 0c-43.492.005-78.737 35.251-78.737 78.736 0 12.008 2.771 23.353 7.57 33.528l.825.853 48.644-48.642-15.297-15.297h66.562v66.557l-15.296-15.297-48.922 48.923c10.468 5.142 22.203 8.117 34.656 8.117 43.484 0 78.74-35.25 78.74-78.742C235.838 35.251 200.582 0 157.093 0z"/></svg>

<?xml version="1.0" encoding="UTF-8"?>
<svg width="236px" height="270px" viewBox="0 0 236 270" version="1.1" xmlns="http://www.w3.org/2000/svg" xmlns:xlink="http://www.w3.org/1999/xlink">
    <!-- Generator: Sketch 43.2 (39069) - http://www.bohemiancoding.com/sketch -->
    <title>10up</title>
    <desc>Created with Sketch.</desc>
    <defs></defs>
    <g id="Page-1" stroke="none" stroke-width="1" fill="none" fill-rule="evenodd">
        <g id="10up" fill-rule="nonzero">
            <polygon id="Shape" fill="#DF2B26" points="60.933 4.502 0 34.499 12.081 48.921 12.081 186.13 60.933 137.262"></polygon>
            <path d="M117.498,215.8 C117.498,223.327 112.406,226.552 106.748,226.552 C99.24,226.552 97.485,221.976 97.485,217.008 L97.485,173.881 L97.166,173.881 L73.032,198.014 L73.032,222.647 C73.032,236.221 80.288,248.175 97.085,248.175 C104.475,248.175 112.003,245.089 117.498,239.983 L117.498,246.565 L141.951,246.565 L141.951,173.881 L117.498,173.881 L117.498,215.8 L117.498,215.8 Z M201.75,172.405 C193.423,172.405 186.58,175.355 181.061,180.732 L181.061,173.88 L156.483,173.88 L156.483,269.941 L181.061,269.941 L181.061,239.982 C186.581,245.088 193.423,248.174 201.75,248.174 C222.038,248.174 234.678,231.922 234.678,210.289 C234.678,188.93 222.038,172.405 201.75,172.405 L201.75,172.405 Z M195.17,227.217 C185.772,227.217 181.061,219.422 181.061,210.156 C181.061,200.889 185.635,193.227 195.17,193.227 C204.448,193.227 208.739,201.012 208.739,210.156 C208.739,219.158 204.448,227.217 195.17,227.217 Z" id="Shape" fill="#303030"></path>
            <path d="M157.093,0 C113.601,0.005 78.356,35.251 78.356,78.736 C78.356,90.744 81.127,102.089 85.926,112.264 L86.751,113.117 L135.395,64.475 L120.098,49.178 L186.66,49.178 L186.66,115.735 L171.364,100.438 L122.442,149.361 C132.91,154.503 144.645,157.478 157.098,157.478 C200.582,157.478 235.838,122.228 235.838,78.736 C235.838,35.251 200.582,0 157.093,0 Z" id="Shape" fill="#DF2B26"></path>
        </g>
    </g>
</svg>
